X:989
T:Dixie
T:Dixie's Land
C:Daniel D. Emmett
O:USA
N:1860
Z:Transcribed by Frank Nordberg - http://www.musicaviva.com
F:http://abc.musicaviva.com/tunes/emmett-daniel-d/emmett-dixie/emmett-dixie.abc
M:4/4
L:1/8
Q:1/4=108
K:C
G/E/|"C"CC C/D/E/F/ GG"C7"GE|"F"AA A>G A>G A/B/c/d/|\
"C"e3c/G/ "Am"c3 G/E/|"Dm G7"G3D/E/ "C"C3:|
G|"C"ce"C7"dc "F"Ac2A|"D"d3A "G"d3G|\
"C"ce "C7"d>c "F"AB "D7"c>A|"C/G"GE c>E "D7 G"ED2E|
"C"C3E"G"D3F|"C"EG "Am7"c>E "D G7"ED2E|\
"C"C3E "G7"D3F|"C"EG "G7"e>c d"C"c|]
W:
W:
W:  From Musica Viva - http://www.musicaviva.com
W:  the Internet center for free sheet music downloads.
